flaticon/files-and-folders/files-8.svg

<svg xmlns="http://www.w3.org/2000/svg" width="32" height="32" viewBox="0 0 24 24">
    <path d="M 20.792969 5.117188 C 20.769531 5 20.707031 4.90625 20.609375 4.851562 L 15.949219 0.191406 C 15.894531 0.09375 15.800781 0.0273438 15.683594 0.0078125 C 15.648438 0 15.613281 0 15.578125 0 L 4.398438 0 C 3.71875 0 3.199219 0.523438 3.199219 1.203125 L 3.199219 22.800781 C 3.199219 23.480469 3.71875 24 4.398438 24 L 19.597656 24 C 20.277344 24 20.796875 23.480469 20.796875 22.800781 L 20.796875 5.222656 C 20.800781 5.1875 20.800781 5.152344 20.792969 5.117188 Z M 19.4375 4.800781 L 16.398438 4.800781 C 16.160156 4.800781 16 4.640625 16 4.402344 L 16 1.363281 Z M 20 22.800781 C 20 23.039062 19.839844 23.199219 19.597656 23.199219 L 4.398438 23.199219 C 4.160156 23.199219 4 23.039062 4 22.800781 L 4 1.203125 C 4 1 4.160156 0.800781 4.398438 0.800781 L 15.199219 0.800781 L 15.199219 4.402344 C 15.199219 5.082031 15.71875 5.601562 16.398438 5.601562 L 20 5.601562 Z M 20 22.800781"/>
    <path d="M 12.398438 5.203125 C 12.160156 5.203125 12 5.359375 12 5.601562 L 12 10.402344 C 12 10.640625 12.160156 10.800781 12.398438 10.800781 L 17.199219 10.800781 C 17.4375 10.800781 17.597656 10.640625 17.597656 10.402344 C 17.597656 7.519531 15.277344 5.203125 12.398438 5.203125 Z M 12.800781 10 L 12.800781 6 C 14.917969 6.203125 16.597656 7.882812 16.796875 10 Z M 12.800781 10"/>
    <path d="M16 12.039062C16 11.800781 15.839844 11.640625 15.597656 11.640625L11.199219 11.640625 11.199219 7.203125C11.199219 6.960938 11.039062 6.800781 10.800781 6.800781 9.121094 6.800781 7.558594 7.640625 6.558594 9 6.539062 9.019531 6.523438 9.042969 6.511719 9.066406 5.90625 9.933594 5.601562 10.949219 5.601562 12 5.601562 14.878906 7.917969 17.199219 10.800781 17.199219 13.679688 17.199219 16 14.878906 16 12.039062zM10.398438 7.601562L10.398438 11.199219 7.480469 9.121094C8.199219 8.28125 9.28125 7.722656 10.398438 7.601562zM10.800781 16.402344C8.359375 16.402344 6.398438 14.441406 6.398438 12 6.398438 11.199219 6.597656 10.441406 7 9.800781L10.558594 12.320312C10.640625 12.359375 10.71875 12.402344 10.800781 12.402344L15.199219 12.402344C14.960938 14.640625 13.078125 16.402344 10.800781 16.402344zM13.597656 19.601562C13.597656 19.839844 13.757812 20 14 20L18 20C18.238281 20 18.398438 19.839844 18.398438 19.601562 18.398438 19.359375 18.238281 19.199219 18 19.199219L14 19.199219C13.757812 19.199219 13.597656 19.359375 13.597656 19.601562zM16 20.800781L14 20.800781C13.757812 20.800781 13.597656 20.960938 13.597656 21.199219 13.597656 21.441406 13.757812 21.601562 14 21.601562L16 21.601562C16.238281 21.601562 16.398438 21.441406 16.398438 21.199219 16.398438 20.960938 16.238281 20.800781 16 20.800781zM18 20.800781L17.597656 20.800781C17.359375 20.800781 17.199219 20.960938 17.199219 21.199219 17.199219 21.441406 17.359375 21.601562 17.597656 21.601562L18 21.601562C18.238281 21.601562 18.398438 21.441406 18.398438 21.199219 18.398438 20.960938 18.238281 20.800781 18 20.800781zM18 20.800781"/>
</svg>

<svg xmlns="http://www.w3.org/2000/svg" width="32" height="32" viewBox="0 0 24 24">
    <path d="M20.793 5.117a.378.378 0 0 0-.184-.265L15.95.192a.367.367 0 0 0-.265-.184C15.648 0 15.614 0 15.578 0H4.398C3.718 0 3.2.523 3.2 1.203v21.598c0 .68.52 1.199 1.2 1.199h15.199c.68 0 1.199-.52 1.199-1.2V5.224a.32.32 0 0 0-.004-.106zm-1.355-.316h-3.04c-.238 0-.398-.16-.398-.399V1.363zm.562 18c0 .238-.16.398-.402.398h-15.2c-.238 0-.398-.16-.398-.398V1.203a.4.4 0 0 1 .398-.402H15.2v3.601c0 .68.52 1.2 1.2 1.2H20zm0 0"/>
    <path d="M12.398 5.203c-.238 0-.398.156-.398.399v4.8c0 .239.16.399.398.399H17.2c.238 0 .399-.16.399-.399 0-2.882-2.32-5.199-5.2-5.199zM12.801 10V6a4.44 4.44 0 0 1 3.996 4zm0 0"/>
    <path d="M16 12.04c0-.24-.16-.4-.402-.4h-4.399V7.204c0-.242-.16-.402-.398-.402-1.68 0-3.242.84-4.242 2.199a.257.257 0 0 0-.047.066A5.09 5.09 0 0 0 5.602 12c0 2.879 2.316 5.2 5.199 5.2C13.68 17.2 16 14.878 16 12.04zm-5.602-4.438v3.597L7.48 9.121c.72-.84 1.801-1.398 2.918-1.52zm.403 8.8A4.39 4.39 0 0 1 6.398 12c0-.8.2-1.559.602-2.2l3.559 2.52c.082.04.16.082.242.082h4.398c-.238 2.239-2.12 4-4.398 4zm0 0M13.598 19.602c0 .238.16.398.402.398h4c.238 0 .398-.16.398-.398 0-.243-.16-.403-.398-.403h-4c-.242 0-.402.16-.402.403zm0 0M16 20.8h-2c-.242 0-.402.16-.402.4 0 .241.16.402.402.402h2c.238 0 .398-.16.398-.403 0-.238-.16-.398-.398-.398zm0 0M18 20.8h-.402c-.239 0-.399.16-.399.4 0 .241.16.402.399.402H18c.238 0 .398-.16.398-.403 0-.238-.16-.398-.398-.398zm0 0"/>
</svg>
